X:415
T: Blacksmith Reel
S: "Ag Deanamh Ceoil" (CCE)
Z: B.Black
L: 1/8
M: 4/4
R: reel
K: D
d2 fd Adfd|d2 fa gece|d2 fd Ad f2|edcd efge :|
a2 fa adfd|a2 gf efge|a2 fa afdf|edcd efge|
a2 fa adfd|a2 gf ef g2|afge fdec|ABcd efge ||
